X:4
%#Noindex
%%maxstaffsep 66
%%notespacingfactor 1.0
T:Ave Verum Corpus (Tenor viol II)
C:William Byrd
L:1/2
M:4/2
I:linebreak $
K:Bb alto 
 B,4 | A,4 | C3 B, | A,2 =B,2 | C2 D2 |$ F, F, B,2- | B, A, G,3/G,/ | ^F,2 z G,/A,/ | %8
w: A-|ve~|ve-  rum~|cor- pus,~|na- tum~|de~ Ma- ri-|- a~ Vir-  gi-|ne:~ Ve- -|
 B, F, G,2 | F,2 B,2 | F, C2 F, |$ z C E2- | E D2 C | F3/F,/ G, G, | A,2 z C- | C C C2 |$ %16
w: * re~ pas-|sum,~ im-|mo- la- tum~|in~ cru-|* ce~ pro|ho- * *  mi-|ne,~ Cu-|* ius~ la-|
 C D2 C | B,2 A,2 | z4 | z C2 B, |$ A,3// F,// B,2 A, | B,2 z B, | G, C2 =B, | C2 A, A, | %24
w: tus~ per- fo-|ra- tum~||un- da|flu-xit~ san- gui-|ne:~ E-|sto~ no- *|bis~ prae- gu-|
 D2 C C |$ E3 D- | D C D C/B,/ | C C B,2 | z B, C2 | =B,2 z G, |$ ^F,2 G,2- | G,2 z2 | %32
w: sta- tum~ in~|mor- tis|_ ex- a- * *|* mi- ne,~|O~ dul-|cis,~ O~|pi- e,|_|
 z B, F3/E/ | D C E D- | D C D2 |$ G,3/B,/ A, G, | ^F,2 G,2 | z2 A,3/C/ | %38
w: O~ Je-  su~|Fi- li~ Ma- ri-|* * ae,~|Mi- se- re- re~|me- i,~|mi-  se|
 B, A,3/G,/ G,- |$ G, ^F, G, F,- |y "<(\#)"F, G, A,3/C/ | B, A,/G,/ A,2 | G,4 | z B, C2 |$ %44
w: re- re~  me- |* * i,~ me-|- i,~ mi-  se-|re- re_ me- |i,~|O~ dul-|
 =B,2 z G, | ^F,2 G,2- | G,2 z2 | z B, F3/E/ | D C E D- | D C D2 |$ G,3/B,/ A, G, | ^F,2 G,2 | %52
w: cis,~ O~|pi- e,|_|O~ Je-  su~|Fi- li~ Ma- ri-|-- ae,~|Mi-  se- re- re~|me- i,~|
 z2 A,3/C/ | B, A,3/ G,/ G,- |$ G, ^F, G, F,- | y "<(\#)"F, G, A,3/C/ | B, A,/G,/ A,2 | G,2 E2- | %58
w: mi-  se-|re- re me- *|* * i,~ me-|* i,~ mi-  se-|re- re~ me- *|i,~ A-|
 E D3/C/ C- |$ C =B,/A,/ B,2-|B,4|] %61
w: |* * * men.|_|

